X: 15027
T: George Petries
R: jig
M: 6/8
K: Dmajor
|:cd|efe ece|a2c e2f|d2B Bcd|f2e cAc|
efe ece|a2c e2f|d2B BGB|1 A3 A:|2 A3 A2||
|:a|f2d def|e2c c2e|d2B Bcd|c2e efa|
f2d def|e2c c2e|d2B BGB|1 A3 A2:|2 A3 A||

